X:1
T:Title
%%score { ( 1 3 ) | ( 2 4 ) }
L:1/8
Q:1/4=100
M:4/4
K:Ab
V:1 treble nm="Grand Piano"
V:3 treble 
V:2 treble 
V:4 treble 
V:1
 c2 Bc d2 cB | [DFA]2 [A,DF]2 [A,CE]2 [A,CE][CEA] | [CEA]2 [B,EG]2 [DGB]2 [B,GB][Ec] | %3
w: E.~S.~Lorenz * * * * *|||
 [DB]2 [CA]2 [Ec]4 | c2 Bc d2 cB | [DFA]2 [A,DF]2 [A,CE]2 [A,CE][CEA] | [GB]2 [GB]2 [GB]2 AB | %7
w: ||||
 c2 B2 [CA]4 | c>c cc c2 BA | [C=EG]2 C2 C4 | A>A AA [=DFA]2 [DFG][B,FA] | [B,GB]2 [Ac]2 [GB]4 | %12
w: |||||
 c>c Bc d2 cB | [DFA]2 [A,DF]2 [A,CE]2 EA | B6 z2 | A6[K:bass] z2 |] %16
w: ||||
V:2
 [A,E]2 [A,D][A,E] [A,F]2 [A,E][K:bass][A,CE] | D,2 D,2 A,,2 A,,A,, | E,2 E,2 E,2 E,[E,G,] | %3
 [A,,A,]2 [A,,E,]2 [A,,A,]4 | [A,E]2 [A,D][A,E] [A,F]2 [A,E][K:bass][A,CE] | D,2 D,2 A,,2 A,,A,, | %6
 [E,E]2 [E,E]2 [E,E]2 [E,CE][E,G,D] | [E,A,E]2 [E,G,D]2 [A,,A,]4 | %8
 [A,E]>[A,E] [A,E][A,E] [A,E]2 [G,C=E][F,CF] | C,2 C,2 C,4 | %10
 [F,CF]>[F,CF] [F,CF][F,CF] B,,2 B,,B,, | E,2 [E,E]2 [E,E]4 | %12
 [A,E]>[A,E] [A,D][A,E] [A,F]2[K:bass] [A,E][A,CE] | D,2 D,2 A,,2 CC | D6 z2 | C6 z2 |] %16
V:3
 x8 | x8 | x8 | x8 | x8 | x8 | x8 | x8 | x8 | x8 | x8 | x8 | x8 | x8 | z2 G,G, G,2 cB | %15
 z2[K:bass] A,A, A,2 z2 |] %16
V:4
 x7[K:bass] x | x8 | x8 | x8 | x7[K:bass] x | x8 | x8 | x8 | x8 | x8 | x8 | x8 | x6[K:bass] x2 | %13
 x8 | z2 E,E, E,2 ED | z2 A,,A,, A,,2 z2 |] %16

